packages/orbit-components/src/icons/svg/money-transfer-in.svg

<!--character:148:550:1459-->
  <svg width="24" height="24" viewBox="0 0 24 24" >
<path   d="M10.9565 3.25344C10.9565 2.7317 11.3913 2.20996 12 2.20996C12.6087 2.20996 13.1304 2.64474 13.1304 3.25344V5.25344C13.1304 5.3404 13.2174 5.42735 13.3043 5.42735H14.6087C14.8696 5.42735 15.0435 5.51431 15.2174 5.68822C15.5652 6.03605 15.5652 6.55779 15.2174 6.90561L12.6087 9.51431C12.2609 9.86213 11.7391 9.86213 11.3913 9.51431L8.78261 6.90561C8.60869 6.7317 8.52174 6.55779 8.52174 6.29692C8.52174 5.77518 8.86956 5.42735 9.3913 5.42735H10.7826C10.8696 5.42735 10.9565 5.3404 10.9565 5.25344V3.25344ZM21.1304 10.4708H2.86957C2.34783 10.4708 2 10.8187 2 11.3404V20.9056C2 21.4273 2.34783 21.7752 2.86957 21.7752H21.1304C21.6522 21.7752 22 21.4273 22 20.9056V11.3404C22 10.8187 21.6522 10.4708 21.1304 10.4708ZM4.6087 13.9491C4.08696 13.9491 3.73913 13.6013 3.73913 13.0795C3.73913 12.5578 4.08696 12.21 4.6087 12.21C5.13044 12.21 5.47826 12.5578 5.47826 13.0795C5.47826 13.6013 5.13044 13.9491 4.6087 13.9491ZM9.39132 16.123C9.39132 17.6013 10.5218 18.7317 12 18.7317C13.4783 18.7317 14.6087 17.6013 14.6087 16.123C14.6087 14.6447 13.4783 13.5143 12 13.5143C10.5218 13.5143 9.39132 14.6447 9.39132 16.123ZM19.3913 20.036C18.8696 20.036 18.5217 19.6882 18.5217 19.1665C18.5217 18.6447 18.8696 18.2969 19.3913 18.2969C19.913 18.2969 20.2609 18.6447 20.2609 19.1665C20.2609 19.6882 19.913 20.036 19.3913 20.036Z" />
</svg>

<!--character:148:550:1459-->
<svg width="24" height="24" viewBox="0 0 24 24" xmlns="http://www.w3.org/2000/svg"><path d="M21.1304 10.4709c.5218 0 .8696.3478.8696.8695v9.5653c0 .5217-.3478.8695-.8696.8695H2.8696c-.5218 0-.8696-.3478-.8696-.8695v-9.5653c0-.5217.3478-.8695.8696-.8695h18.2608zM4.6087 13.949c.5217 0 .8696-.3478.8696-.8695 0-.5218-.3479-.8696-.8696-.8696s-.8696.3478-.8696.8696c0 .5217.3479.8695.8696.8695zM12 18.7317c1.4783 0 2.6087-1.1304 2.6087-2.6087 0-1.4782-1.1304-2.6087-2.6087-2.6087-1.4783 0-2.6087 1.1305-2.6087 2.6087 0 1.4783 1.1304 2.6087 2.6087 2.6087zm7.3913 1.3044c.5217 0 .8696-.3478.8696-.8696 0-.5217-.3479-.8695-.8696-.8695s-.8696.3478-.8696.8695c0 .5218.3479.8696.8696.8696zM12 2.21c.6087 0 1.1304.4348 1.1304 1.0435v2c0 .087.087.1739.174.1739h1.3043c.2609 0 .4348.087.6087.2609.3478.3478.3478.8695 0 1.2174l-2.6087 2.6086c-.3478.3479-.8696.3479-1.2174 0L8.7826 6.9057c-.1739-.174-.2609-.3479-.2609-.6087 0-.5218.3479-.8696.8696-.8696h1.3913c.087 0 .174-.087.174-.174v-2c0-.5217.4347-1.0434 1.0434-1.0434z"/></svg>
